icons/desktop/16/svg/xr-16.svg

<svg width="16" height="16" viewBox="0 0 16 16" fill="none" xmlns="http://www.w3.org/2000/svg">
<path d="M11.625 5.5C12.0392 5.5 12.375 5.83579 12.375 6.25C12.375 6.66421 12.0392 7 11.625 7H4.375C3.96079 7 3.625 6.66421 3.625 6.25C3.625 5.83579 3.96079 5.5 4.375 5.5H11.625Z" fill="black"/>
<path fill-rule="evenodd" clip-rule="evenodd" d="M8 2.5C9.66312 2.5 11.5161 2.57719 13.5225 2.78613L13.7812 2.8252C15.0525 3.07982 16 4.19981 16 5.52637V10.2383C15.9999 11.725 14.825 12.9319 13.3457 12.9902L13.3467 12.9912C13.1927 12.9977 13.035 13.001 12.875 13.001C12.3912 13.001 11.8223 12.9722 11.1885 12.8838C10.5106 12.7886 9.88946 12.4411 9.45312 11.917L8.19238 10.4033C8.09183 10.2828 7.90731 10.2836 7.80859 10.4023L7.80762 10.4033L6.54688 11.9141C6.16719 12.3702 5.65543 12.6945 5.07715 12.833L4.8252 12.8809C4.31984 12.9523 3.74941 13 3.125 13C2.96316 13 2.79193 12.9967 2.61133 12.9893C1.13712 12.9267 9.8052e-05 11.6931 0 10.2422V5.52539C0 4.12588 1.04865 2.93465 2.4541 2.78809C4.14156 2.61265 5.99888 2.5 8 2.5ZM8 4C6.05512 4 4.24992 4.10971 2.60938 4.28027C1.9811 4.34597 1.5 4.88109 1.5 5.52539V10.2422C1.5001 10.9131 2.02616 11.4628 2.67383 11.4902C2.83281 11.4968 2.98318 11.5 3.125 11.5C3.67227 11.5 4.1718 11.458 4.61426 11.3955L4.72656 11.374C4.98512 11.3123 5.21766 11.1675 5.39453 10.9551L6.65625 9.44238C7.3556 8.60253 8.64452 8.6039 9.34375 9.44238L10.6064 10.957L10.6855 11.043C10.8778 11.2344 11.1288 11.3609 11.3965 11.3984C11.9523 11.4759 12.451 11.501 12.875 11.501C13.0149 11.501 13.1513 11.4977 13.2832 11.4922H13.2861C13.9678 11.4656 14.4999 10.9127 14.5 10.2383V5.52637C14.5 4.8875 14.0099 4.34505 13.3672 4.27832C11.4176 4.07529 9.6168 4 8 4Z" fill="black"/>
</svg>

<!-- This Source Code Form is subject to the terms of the Mozilla Public
   - License, v. 2.0. If a copy of the MPL was not distributed with this
   - file, You can obtain one at http://mozilla.org/MPL/2.0/. -->
<svg xmlns="http://www.w3.org/2000/svg" width="16" height="16" fill="context-fill" fill-opacity="context-fill-opacity" viewBox="0 0 16 16">
    <path d="M11.625 5.5a.75.75 0 0 1 0 1.5h-7.25a.75.75 0 0 1 0-1.5z" />
    <path fill-rule="evenodd" d="M8 2.5c1.663 0 3.516.077 5.523.286l.258.04A2.76 2.76 0 0 1 16 5.525v4.712a2.755 2.755 0 0 1-2.654 2.752v.001q-.23.01-.471.01c-.484 0-1.053-.029-1.687-.117a2.77 2.77 0 0 1-1.735-.967l-1.26-1.514a.25.25 0 0 0-.384 0h-.001l-1.261 1.511c-.38.456-.892.78-1.47.919l-.252.048a12 12 0 0 1-2.214.108C1.137 12.927.001 11.693 0 10.242V5.525c0-1.4 1.049-2.59 2.454-2.737A54 54 0 0 1 8 2.5M8 4c-1.945 0-3.75.11-5.39.28-.629.066-1.11.601-1.11 1.245v4.717c0 .671.526 1.22 1.174 1.248q.239.01.451.01c.547 0 1.047-.042 1.49-.104l.112-.022c.258-.062.49-.207.668-.419l1.261-1.513a1.75 1.75 0 0 1 2.688 0l1.262 1.515.08.086c.192.191.443.318.71.355a10.7 10.7 0 0 0 1.887.094h.003a1.256 1.256 0 0 0 1.214-1.254V5.526c0-.638-.49-1.181-1.133-1.248A52 52 0 0 0 8 4" clip-rule="evenodd" />
</svg>
